img/facebook.svg

<?xml version="1.0" encoding="utf-8"?>
<!-- Generator: Adobe Illustrator 21.1.0, SVG Export Plug-In . SVG Version: 6.00 Build 0)  -->
<svg version="1.1" id="Layer_1" xmlns="http://www.w3.org/2000/svg" xmlns:xlink="http://www.w3.org/1999/xlink" x="0px" y="0px"
	 viewBox="0 0 400 400" style="enable-background:new 0 0 400 400;" xml:space="preserve">
<style type="text/css">
	.st0{fill:#FFFF00;}
</style>
<path class="st0" d="M346.1,0H53.9C24.2,0,0,24.2,0,53.9v292.2C0,375.8,24.2,400,53.9,400H198l0.3-143h-37.2c-4.8,0-8.7-3.9-8.8-8.7
	l-0.2-46.1c0-4.9,3.9-8.8,8.8-8.8H198v-44.5c0-51.7,31.5-79.8,77.6-79.8h37.8c4.8,0,8.8,3.9,8.8,8.8v38.8c0,4.8-3.9,8.8-8.8,8.8
	h-23.2c-25,0-29.9,11.9-29.9,29.4v38.6h55.1c5.3,0,9.3,4.6,8.7,9.8l-5.5,46.1c-0.5,4.4-4.3,7.7-8.7,7.7h-49.4l-0.3,143h85.7
	c29.7,0,53.9-24.2,53.9-53.9V53.9C400,24.2,375.8,0,346.1,0z"/>
</svg>

<svg width="400" height="400" viewBox="0 0 400 400" fill="none" xmlns="http://www.w3.org/2000/svg">
	<g clip-path="url(#facebook)">
		<path d="M346.1 0H53.9C24.2 0 0 24.2 0 53.9V346.1C0 375.8 24.2 400 53.9 400H198L198.3 257H161.1C156.3 257 152.4 253.1 152.3 248.3L152.1 202.2C152.1 197.3 156 193.4 160.9 193.4H198V148.9C198 97.2 229.5 69.1 275.6 69.1H313.4C318.2 69.1 322.2 73 322.2 77.9V116.7C322.2 121.5 318.3 125.5 313.4 125.5H290.2C265.2 125.5 260.3 137.4 260.3 154.9V193.5H315.4C320.7 193.5 324.7 198.1 324.1 203.3L318.6 249.4C318.1 253.8 314.3 257.1 309.9 257.1H260.5L260.2 400.1H345.9C375.6 400.1 399.8 375.9 399.8 346.2V53.9C400 24.2 375.8 0 346.1 0Z" fill="#FFFF00"/>
	</g>
	<defs>
		<clipPath id="facebook">
			<rect width="400" height="400" fill="white"/>
		</clipPath>
	</defs>
</svg>
